app/images/logo.svg

<svg width="35" height="20" viewBox="0 0 35 20" fill="none" xmlns="http://www.w3.org/2000/svg">
<path d="M11.9948 8.00517L9.53368 10.8549C9.30916 10.544 8.98532 10.2936 8.56218 10.1036C8.13903 9.91363 7.71158 9.81864 7.2798 9.81864C6.39897 9.81864 5.68221 10.1425 5.12953 10.7901C4.57686 11.4378 4.30052 12.2193 4.30052 13.1347C4.30052 14.0479 4.57686 14.8273 5.12953 15.4663C5.68221 16.1053 6.41624 16.4249 7.33161 16.4249C8.33333 16.4249 9.1019 16.1053 9.63731 15.4663L11.9948 18.342C10.8549 19.4473 9.26598 20 7.22798 20C5.13817 20 3.41106 19.3782 2.04664 18.1369C0.682215 16.8933 0 15.2245 0 13.1369C0 11.0816 0.686526 9.42356 2.05958 8.16277C3.43264 6.90197 5.1468 6.27158 7.20207 6.27158C8.11744 6.27158 9.01986 6.43133 9.90933 6.75085C10.7988 7.06821 11.494 7.48703 11.9948 8.00517Z" fill="black"/>
<path d="M26.4507 19.5855H22.1761V12.5907C22.1761 10.7772 21.5457 9.87047 20.2849 9.87047C19.5768 9.87047 19.0154 10.1295 18.6009 10.6477C18.1864 11.1658 17.9792 11.8221 17.9792 12.6166V19.5855H13.7305V0H17.9792V8.31606H18.031C18.3419 7.76339 18.8255 7.29275 19.4818 6.90415C20.1381 6.51555 20.8894 6.32124 21.7357 6.32124C23.3591 6.32124 24.5508 6.83506 25.3108 7.8627C26.0707 8.89033 26.4507 10.1382 26.4507 11.6062V19.5855Z" fill="black"/>
<path d="M33.7423 15.5052C34.2518 15.9996 34.5066 16.5997 34.5066 17.3057C34.5066 18.0138 34.2518 18.614 33.7423 19.1062C33.2328 19.6006 32.624 19.8467 31.9159 19.8467C31.1905 19.8467 30.5688 19.6049 30.0506 19.1213C29.5325 18.6356 29.2734 18.0419 29.2734 17.3338C29.2734 16.6257 29.5325 16.0212 30.0506 15.5203C30.5688 15.0194 31.1905 14.7668 31.9159 14.7668C32.624 14.7668 33.2328 15.013 33.7423 15.5052Z" fill="black"/>
</svg>

<svg width="35" height="20" fill="none" xmlns="http://www.w3.org/2000/svg"><path d="M11.995 8.005l-2.461 2.85c-.225-.311-.549-.561-.972-.751a3.105 3.105 0 0 0-1.282-.285c-.881 0-1.598.323-2.15.971-.553.648-.83 1.43-.83 2.345 0 .913.277 1.692.83 2.331.552.64 1.286.959 2.202.959 1.001 0 1.77-.32 2.305-.959l2.358 2.876C10.855 19.447 9.266 20 7.228 20c-2.09 0-3.817-.622-5.181-1.863C.682 16.893 0 15.225 0 13.137c0-2.055.687-3.713 2.06-4.974 1.373-1.261 3.087-1.891 5.142-1.891.915 0 1.818.16 2.707.479.89.317 1.585.736 2.086 1.254zM26.45 19.585h-4.274v-6.994c0-1.814-.63-2.72-1.891-2.72-.708 0-1.27.258-1.684.777-.415.518-.622 1.174-.622 1.969v6.968h-4.248V0h4.248v8.316h.052c.31-.553.795-1.023 1.45-1.412.657-.388 1.408-.583 2.255-.583 1.623 0 2.815.514 3.575 1.542.76 1.027 1.14 2.275 1.14 3.743v7.98zM33.742 15.505c.51.495.765 1.095.765 1.8 0 .709-.255 1.309-.765 1.801a2.53 2.53 0 0 1-1.826.74 2.638 2.638 0 0 1-1.865-.725 2.352 2.352 0 0 1-.778-1.787c0-.708.26-1.313.778-1.814a2.59 2.59 0 0 1 1.865-.753c.708 0 1.317.246 1.826.738z" fill="#000"/></svg>
